public/assets/image/logoWorkFlow-nome.svg

<svg width="119" height="21" viewBox="0 0 119 21" fill="none" xmlns="http://www.w3.org/2000/svg">
<g clip-path="url(#clip0_433_332)">
<path d="M0 1.30664H4.46988L7.68929 14.4787L11.2802 1.30664H14.7386L18.3302 14.4787L21.5503 1.30664H26.0202L20.8851 20.1232H16.043L13.0101 9.02122L9.97714 20.1232H5.13507L0 1.30664Z" fill="white"/>
<path d="M25.4868 13.4029C25.4868 9.39727 28.6263 6.30664 32.5368 6.30664C36.4473 6.30664 39.5868 9.398 39.5868 13.4029C39.5868 17.4079 36.4473 20.5 32.5368 20.5C28.6263 20.5 25.4868 17.4086 25.4868 13.4029ZM35.5964 13.4029C35.5964 11.4943 34.266 10.2308 32.5368 10.2308C30.8076 10.2308 29.4772 11.4943 29.4772 13.4029C29.4772 15.3116 30.8076 16.575 32.5368 16.575C34.266 16.575 35.5964 15.3116 35.5964 13.4029Z" fill="white"/>
<path d="M49.8295 6.41357V10.9837C48.1802 10.7146 45.8391 11.3867 45.8391 14.0481V20.1232H41.8487V6.6827H45.8391V9.07505C46.3711 7.27406 48.1536 6.41357 49.8295 6.41357Z" fill="white"/>
<path d="M59.9391 20.1232L55.6823 14.1827V20.1232H51.6919V1.30664H55.6823V12.5701L59.6727 6.68342H64.3284L59.4863 13.4037L64.4615 20.1239H59.9384L59.9391 20.1232Z" fill="white"/>
<path d="M68.1856 2.65011V10.177H76.7791V11.5212H68.1856V20.1232H66.7753V1.30664H77.098V2.65084H68.1856V2.65011Z" fill="white"/>
<path d="M80.2901 0.5H81.6205V20.1232H80.2901V0.5Z" fill="white"/>
<path d="M84.8132 13.403C84.8132 9.42425 87.9261 6.38672 91.81 6.38672C95.6939 6.38672 98.7808 9.42425 98.7808 13.403C98.7808 17.3818 95.6679 20.4193 91.81 20.4193C87.952 20.4193 84.8132 17.3818 84.8132 13.403ZM97.4238 13.403C97.4238 10.204 94.9761 7.67709 91.81 7.67709C88.6438 7.67709 86.1695 10.204 86.1695 13.403C86.1695 16.602 88.6438 19.1289 91.81 19.1289C94.9761 19.1289 97.4238 16.602 97.4238 13.403Z" fill="white"/>
<path d="M119 6.68262L114.796 20.1231H113.333L109.635 8.672L105.937 20.1231H104.473L100.27 6.68262H101.68L105.218 18.376L108.943 6.68262H110.327L114.051 18.376L117.59 6.68262H119Z" fill="white"/>
</g>
<defs>
<clipPath id="clip0_433_332">
<rect width="119" height="20" fill="white" transform="translate(0 0.5)"/>
</clipPath>
</defs>
</svg>

<svg width="119" height="21" fill="none" xmlns="http://www.w3.org/2000/svg"><g clip-path="url(#a)" fill="#fff"><path d="M0 1.307h4.47l3.22 13.172 3.59-13.172h3.459l3.591 13.172 3.22-13.172h4.47l-5.135 18.816h-4.842L13.01 9.021 9.977 20.123H5.135L0 1.307Zm25.487 12.096c0-4.006 3.14-7.096 7.05-7.096 3.91 0 7.05 3.091 7.05 7.096s-3.14 7.097-7.05 7.097c-3.91 0-7.05-3.091-7.05-7.097Zm10.11 0c0-1.909-1.331-3.172-3.06-3.172-1.73 0-3.06 1.263-3.06 3.172 0 1.909 1.33 3.172 3.06 3.172 1.729 0 3.06-1.263 3.06-3.172ZM49.83 6.414v4.57c-1.65-.27-3.99.403-3.99 3.064v6.075h-3.991V6.683h3.99v2.392c.532-1.8 2.315-2.661 3.99-2.661Zm10.11 13.709-4.258-5.94v5.94h-3.99V1.307h3.99V12.57l3.99-5.887h4.656l-4.842 6.72 4.976 6.72h-4.524.001ZM68.186 2.65v7.527h8.593v1.344h-8.593v8.602h-1.41V1.307h10.322V2.65h-8.912ZM80.29.5h1.33v19.623h-1.33V.5Zm4.523 12.903c0-3.979 3.113-7.016 6.997-7.016s6.97 3.037 6.97 7.016-3.112 7.016-6.97 7.016c-3.858 0-6.997-3.037-6.997-7.016Zm12.61 0c0-3.199-2.447-5.726-5.613-5.726-3.166 0-5.64 2.527-5.64 5.726s2.474 5.726 5.64 5.726c3.166 0 5.614-2.527 5.614-5.726ZM119 6.683l-4.204 13.44h-1.463l-3.698-11.451-3.698 11.451h-1.464l-4.203-13.44h1.41l3.538 11.693 3.725-11.693h1.384l3.724 11.693 3.539-11.693H119Z"/></g><defs><clipPath id="a"><path fill="#fff" transform="translate(0 .5)" d="M0 0h119v20H0z"/></clipPath></defs></svg>
